src/symbolic/status/media-playlist-repeat-song-symbolic.svg

<svg xmlns="http://www.w3.org/2000/svg" width="16" height="16"><path d="M11.5 8C9.57 8 8 9.57 8 11.5S9.57 15 11.5 15s3.5-1.57 3.5-3.5S13.43 8 11.5 8zM11 9h1v5h-1v-3.5h-1V10c1 0 1-1 1-1z" fill="#444"/><path d="M6 1v2H4C2.338 3 1 4.338 1 6v4c0 1.662 1.338 3 3 3h3.264A4.5 4.5 0 0 1 7 11.5a4.5 4.5 0 0 1 .031-.5H4c-.554 0-1-.446-1-1V6c0-.554.446-1 1-1h2v2l4-3-4-3zm5 2v2h1c.554 0 1 .446 1 1v1.264a4.5 4.5 0 0 1 2 1.41V6c0-1.662-1.338-3-3-3h-1z" fill="#444"/></svg>

<svg xmlns="http://www.w3.org/2000/svg" width="16" height="16" version="1.1">
 <path style="fill:#444444" d="M 11.5,8 C 9.57,8 8,9.57 8,11.5 8,13.43 9.57,15 11.5,15 13.43,15 15,13.43 15,11.5 15,9.57 13.43,8 11.5,8 Z M 11,9 H 12 V 14 H 11 V 10.5 H 10 V 10 C 11,10 11,9 11,9 Z"/>
 <path style="fill:#444444" d="M 6 1 L 6 3 L 4 3 C 2.338 3 1 4.338 1 6 L 1 10 C 1 11.662 2.338 13 4 13 L 7.2637 13 A 4.5 4.5 0 0 1 7 11.5 A 4.5 4.5 0 0 1 7.0312 11 L 4 11 C 3.446 11 3 10.554 3 10 L 3 6 C 3 5.446 3.446 5 4 5 L 6 5 L 6 7 L 10 4 L 6 1 z M 11 3 L 11 5 L 12 5 C 12.554 5 13 5.446 13 6 L 13 7.2637 A 4.5 4.5 0 0 1 15 8.6738 L 15 6 C 15 4.338 13.662 3 12 3 L 11 3 z"/>
</svg>
